!!!SOCIAL_FUNCTION:	bird dance songs
!!!PDT:	1956
!!!OTL: No_115_Hinata_Dance_Song_(k).krn
!!!LANG: Non-Tone
!!!LING_GROUP: Muskogean
!!!REG: Florida
**kern
*staff1
=1-
*clefF4
*k[b-]
*M2/4
4r
8.r
16d\
=2!|:
8.c\L
16c\Jk
(8d\L
8c\J)
=3
(8c\L
8A\J)
16A\LL
16A\JJ
16r
16c\
=4
8.c\L
16c\Jk
(8.A\L
16F\Jk)
=5
4F\
16F\LL
16F\JJ
16r
16A\
=6
(16A\LK
8F\)
16F\Jk
4C/
=7
4C/
16C/LL
16C/JJ
16r
16G\
=8
8.F\L
16F\Jk
4G\
=9
4F\
16F\LL
16F\JJ
16r
16A\
=10
(16A\LK
8F\)
16F\Jk
4C/
=11
4C/
16C/LL
16C/JJ
16r
16d\
==:|!
*-
